icons/dark/bin.svg

<svg width="16" height="16" viewBox="0 0 16 16" fill="none" xmlns="http://www.w3.org/2000/svg">
<path d="M9.70703 1.29297L12.707 4.29297L13 5V14L12 15H7V14H12V6H8V2H3V10H2V2L3 1H9L9.70703 1.29297ZM9 5H12L9 2V5Z" fill="#C5C5C5"/>
<path d="M1.53846 11.3564C1.96239 11.3564 2.28205 11.5205 2.49744 11.8487C2.71453 12.1752 2.82308 12.6308 2.82308 13.2154C2.82308 13.8017 2.71453 14.2607 2.49744 14.5923C2.28205 14.9222 1.96239 15.0872 1.53846 15.0872C1.11111 15.0872 0.789744 14.9222 0.574359 14.5923C0.360684 14.2607 0.253846 13.8017 0.253846 13.2154C0.253846 12.6308 0.360684 12.1752 0.574359 11.8487C0.789744 11.5205 1.11111 11.3564 1.53846 11.3564ZM1.53846 11.9436C1.35726 11.9436 1.22479 12.041 1.14103 12.2359C1.05726 12.4291 1.01538 12.7556 1.01538 13.2154C1.01538 13.4821 1.02308 13.7 1.03846 13.8692C1.05556 14.0368 1.08376 14.1667 1.12308 14.259C1.16239 14.3513 1.21538 14.4154 1.28205 14.4513C1.35043 14.4855 1.4359 14.5026 1.53846 14.5026C1.65983 14.5026 1.75812 14.4615 1.83333 14.3795C1.91026 14.2974 1.96667 14.1624 2.00256 13.9744C2.03846 13.7846 2.05641 13.5316 2.05641 13.2154C2.05641 12.8667 2.04103 12.6009 2.01026 12.4179C1.97949 12.235 1.9265 12.1103 1.85128 12.0436C1.77778 11.9769 1.6735 11.9436 1.53846 11.9436ZM1.94103 12.0564L2.14872 12.5L1.2 14.459L0.966667 14.0949L1.94103 12.0564ZM5.23771 11.4462V14.8974H4.44797V12.2436L3.7172 12.7L3.37361 12.1436L4.51976 11.4462H5.23771ZM5.90181 14.3872V15H3.59156V14.3872H5.90181Z" fill="#C5C5C5"/>
</svg>

<svg xmlns="http://www.w3.org/2000/svg" width="16" height="16" fill="#c5c5c5" xmlns:v="https://vecta.io/nano"><path d="M9.707 1.293l3 3L13 5v9l-1 1H7v-1h5V6H8V2H3v8H2V2l1-1h6l.707.293zM9 5h3L9 2v3zm-7.462 6.356c.424 0 .744.164.959.492s.326.782.326 1.367-.109 1.045-.326 1.377-.535.495-.959.495-.749-.165-.964-.495-.321-.791-.321-1.377.107-1.04.321-1.367.537-.492.964-.492zm0 .587c-.181 0-.314.097-.397.292s-.126.52-.126.979l.023.654a1.39 1.39 0 0 0 .085.39.37.37 0 0 0 .159.192.57.57 0 0 0 .256.051.38.38 0 0 0 .295-.123c.077-.082.133-.217.169-.405s.054-.443.054-.759c0-.349-.015-.615-.046-.798s-.084-.308-.159-.374-.178-.1-.313-.1zm.403.113l.208.444-.949 1.959-.233-.364.974-2.039zm3.297-.61v3.451h-.79v-2.654l-.731.456-.344-.556 1.146-.697h.718zm.664 2.941V15h-2.31v-.613h2.31z"/></svg>
